public/icons/left_arrow_icon.svg

<svg width="24" height="24" viewBox="0 0 24 24" fill="none" xmlns="http://www.w3.org/2000/svg">
<path d="M11.8585 17.4101C12.0925 17.2839 12.2384 17.0438 12.2384 16.7827L12.2384 12.7173L20.2657 12.7173C20.671 12.7173 21 12.396 21 12C21 11.6041 20.671 11.2828 20.2657 11.2828L12.2384 11.2828L12.2384 7.21731C12.2384 6.95527 12.0925 6.71523 11.8585 6.58995C11.6245 6.46275 11.3386 6.47136 11.1125 6.61003L3.34267 11.3927C3.12924 11.5247 3 11.7533 3 12C3 12.2468 3.12924 12.4753 3.34267 12.6073L11.1125 17.39C11.2319 17.4627 11.368 17.5 11.5041 17.5C11.6255 17.5 11.7479 17.4694 11.8585 17.4101" fill="#4E4B66"/>
</svg>

<svg width="24" height="24" fill="none" xmlns="http://www.w3.org/2000/svg"><path d="M11.858 17.41a.715.715 0 0 0 .38-.627v-4.066h8.028A.726.726 0 0 0 21 12a.726.726 0 0 0-.734-.717h-8.028V7.217a.712.712 0 0 0-.38-.627.748.748 0 0 0-.745.02l-7.77 4.783A.714.714 0 0 0 3 12c0 .247.13.475.343.607l7.77 4.783a.754.754 0 0 0 .745.02" fill="#4E4B66"/></svg>
